X: 1
T: The Unsung Hero
T: 8x32R (Howard Lasnik)
P: Bonaparte's Retreat
C: from Calum Pasqua, arr. T. Traub 7-6-11
L: 1/4
M: 4/4
K: G
|: "G"B2 B> B|"G"d B2 G|"G"B2 B> B|"G"A G2 A|"G"B2 B> B|"Bm"d B> "Em"A G|"C"A/B/A/G/ "D"E F|1 "G"G2-G/D/B,/D/ :| |2 "G"G2-G/d/e/f/ ||
|:"G"g2 g> g|"G"e d2 e|"G"g>f g a|"Em"b e2 f|"C"g/a/b/a/ g e|"Bm"d B "Em"B/A/ G|"C"A/B/A/G/ "D"E F|1 "G"G2 G d :| |2 "G"G2 G |]
